X:126
T:Denver Belle
C:Traditional (keys of C & G)
N:transcribed for mandolin from the playing of Kenny Baker Steven Block 5/2011
R:bluegrass
L:1/8
Q:1/4=200
M:4/4
K:C
"key of C"z6 cd |: "C"eg2e [g3e3]e | [ge]a gd [ge]d cd | [e2e2] [e2e2] [e2e2] [e2e2] | 
ed cA GE DC | "G"[BD]d2B [d2D2] Bc | de dc BA GE |1 "F"FG AB cd ec | dc AG Ac3 :|2 "F"AB cd ec dc | 
"C"Ac2d c2 "key of G"dc | 
K:G
|: "G"BA (3Bcd g2 [g2d2] | BA (3Bcd b2 [b2d2] | "D7"fg ag fd fa | "G"eg fg ed ^cd | 
BA (3Bcd g2 [g2d2] | BA (3Bcd b2 [b2d2] | "D7"fg ag fd fa |1 "G"[g2B2] ga g2 dc :|2 "G"[g2B2] ga "G7"=f2 d2 | 
"to finish: play "z8 | z8 | z8 | "D7"fg ^ga fd ef | "G"g2 ga ge dc | 


